public/avatar/item0/45.svg

<svg xmlns:xlink="http://www.w3.org/1999/xlink" height="58.65" width="49.15" xmlns="http://www.w3.org/2000/svg"><use height="13.45" transform="translate(9.75 15.15)" width="28.1" xlink:href="#a"/><defs><g id="a" fill-rule="evenodd"><path d="M11.2 5.4V3.9Q10.9.45 7.75-.4l-8.2-1.05Q-3.3-1.5-8.55-.3q-3.25.8-3.55 4.25v.15l.15.95.1.75-.85.25-.15 1.8 1.6-.65.35.6.05.2q1.5 1.15 3.5 1l5.9-1.05q.9-.65 2 0l3.6.6 5.3-.2 1.45-.8.4-.45.5.3.45.2.05-.55-.05-1.2-1.05-.45m1.5-1q1 .45 1.05 1.3v.25q.1 2.45-.25 3-.5.75-1.95 0-.75.6-1.65.8l-6.1.3Q.6 9.7-.15 9.25l-.4-.1q-1.15.85-6.65 1.3-2.85.3-4.6-1.3l-.05-.1-2.3.05-.2-1.05V7.9l.2-2.15q0-.55.65-.9l-.1-.75v-.3q.4-4.5 4.7-5.55Q-3.5-3-.45-2.95q3.75 0 8.55 1.1Q12.3-.7 12.7 3.8v.6" transform="translate(14.35 2.95)"/><path d="M6.55 7.8H4.2Q7.85 9 10.4 7l-3.85.8m4.4-1.25.1.2q-2.9 2.7-7.45 1.1L1.45 7.3l.05-.25 1.35.35 3.65.15q2.45-.3 4.45-1" transform="translate(14.35 2.95)"/><path d="M1.65-.45h-4.2q-2.5-.2-5.65.6-3.85.95-3.7 3.85.1 1.95 1.25 2.8l6.65.25 1.55-.3q1.15-.8 2-.7 1.25.15 1.95.7l1.6.3 6.7-.25Q10.95 6 11 4q.15-2.9-3.7-3.85l-5.65-.6m-9.9.35 5.75-.6h4.15l5.7.6Q11.4.95 11.25 4q-.05 2-1.3 3l-6.9.25-1.65-.3Q.55 6.3-.45 6.3q-.75-.15-1.9.7l-1.6.3q-5.2.95-6.85-.3-1.2-.95-1.35-3-.15-3.05 3.9-4.1" transform="translate(14.35 2.95)"/><path d="m-12.5 5.8.95 1.45-2.05.65.1-1.35q.65-.1 1-.75" fill="#002f90" transform="translate(14.35 2.95)"/><path d="M-12.5 5.8q-.35.65-1 .75l.05-.75.8-.55.15.55" fill="#003fc1" transform="translate(14.35 2.95)"/><path d="m-13.6 7.9 2.05-.65.55.6q-2.3 1.2-2.5.85l-.1-.8M13 6q.15 2.1-.1 2.5-.25.35-2.45-1l1.05-1.2L13 6" fill="#001c58" transform="translate(14.35 2.95)"/><path d="M13 5.6V6l-1.5.3.4-1.4 1.1.7" fill="#002f90" transform="translate(14.35 2.95)"/><path d="m.7 6.7 4.15.7 4.5.2q1.25-.2 2.4-1.9 1.2 2.4-2.1 3.35L3.9 9.3.25 8.6-1 8.55q-.75.6-6.25 1.2-2.6.25-4.05-1.2l-1.2-2.85 1.25 1.3q.4 1.9 8.95.2.8-.2 1.7-1.45Q0 5.6.7 6.7" fill="#00387a" transform="translate(14.35 2.95)"/><path d="m1.6 6.35 4.95.8q3.2.05 3.5-2.9l1.9-.4q.25 2.7-1.65 3.95Q7.45 9.7.55 7.3q-.4-.05-.65-.65-.2-.5-.35-.5-.2 1.05-1 1.15-9.5 3.5-11.2-1.9h2.05q.8 1.9 3.6 1.75l4.25-.75 2.3-2.1L1.6 6.35" fill="#005ad2" transform="translate(14.35 2.95)"/><path d="M-8.75-1.05q5.4-1.2 8.3-1.15L7.9-1.1q3.8.95 4.05 4.95l-1.9.4.05-.25q.15-2.6-3.45-3.5L2.4-.1-.4 0l-2.8-.1q-1.65-.05-4.25.6-3.6.9-3.45 3.5l.3 1.4h-2.05q-.3-.8-.2-1.55.35-3.95 4.1-4.9" fill="#0078f9" transform="translate(14.35 2.95)"/><path d="m-.45-1.6 4.7.4Q9.1-.65 9.7.25 5.05-1 1.75-1.05l-2.2.1-2.2-.1Q-5.95-1-10.6.25q.65-.9 5.45-1.45l4.7-.4" fill="#12c4fb" transform="translate(14.35 2.95)"/><path d="M10.9 4.4q.05 2.6-3.6 2.85-2.55.2-5.6-.65l6.1.35q3.05-1.2 1.3-4.5-.55-1.1-5.1-1.7L-.45.35l-4.45.4q-4.55.6-5.1 1.7-1.65 3.45 1.25 4.6l6.2-.45-5.65.65Q-11.9 7-11.8 4.4q.25-5.3 11.35-5.55Q10.9-.9 10.9 4.4" fill="#00387a" transform="translate(14.35 2.95)"/><path d="m-2.6-.1 2.15-.1L5.1.25 2.35 2.7Q.8 4.1.3 5.4l-.8-.3q-.3 0-1.15.5-.9.5-.85.75l-4.05.85Q-5.8 4.85-2.6-.1" fill="#00a0fa" transform="translate(14.35 2.95)"/><path d="M-6.55 7.2q-4.9.9-4.55-3.15.15-2.65 3.25-3.4L-2.6-.1q-3.2 4.95-3.95 7.3M7 .65q3 .75 3.25 3.4.3 3.6-3.5 3.3l-5.15-1q.05-.3-1.3-.95.5-1.3 2.05-2.7L5.1.25l1.9.4" fill="#0064ef" transform="translate(14.35 2.95)"/><path d="m-10.95 5.8-.15-1.75q.15-2.65 3.25-3.4l7-.75q-9.35 1.85-10.1 5.9" fill="#0080f8" transform="translate(14.35 2.95)"/><path d="m.85-.1 1.1.1q-4.6 2.85-6.65 6.85l-.7.15Q-3.9 3.1.85-.1" fill="#fff" transform="translate(14.35 2.95)"/><path d="M10 4q.25 3.5-4.35 2.55 2.2-.7 2.8-1.55.75-1.15-.4-3.55Q9.85 2.15 10 4" fill="#002f90" transform="translate(14.35 2.95)"/><path d="M-1.45.45q-4.9.4-6.9 1.8-1.85 1.2-1.55.65Q-8.75 1.2-4.5.6l3.05-.15" fill="#fff" transform="translate(14.35 2.95)"/><path d="m1.4 6 .15-.8 6.15.7-.1.85L1.4 6" fill="#002f90" transform="translate(14.35 2.95)"/><path d="m-7.6-.8-.3.6-.85.5Q-10 .75-10.9 1.75l-.65 1-.75-.3L-11.25.9Q-9.8-.6-7.6-.8" fill="#bffdfe" transform="translate(14.35 2.95)"/><path d="M2.1 6.45Q2.3 5.4 6.45 1l.6.55Q3.1 5.8 2.95 6.6l-.85-.15" fill="#fff" transform="translate(14.35 2.95)"/><path d="m-12.05 6.2.8-.2q0 2.35 6.9 1l.7-.2.6.75Q-8.7 8.9-11 7.45l-1.05-1.25M.45 5.05l-.3.75-.6-.25-1.5 1q-.25-.25.1-.8l1.3-1.1 1 .4m9.7.5.45-.65.65-.05q-.5 3.3-4.95 3l.05-.8q2.85.15 3.8-1.5" fill="#bffdfe" transform="translate(14.35 2.95)"/><path d="M.05 7.25V8.5h-1V7.25h1" transform="translate(14.35 2.95)"/></g></defs></svg>

<?xml version="1.0" encoding="UTF-8" standalone="no"?>
<svg xmlns:xlink="http://www.w3.org/1999/xlink" height="58.65px" width="49.15px" xmlns="http://www.w3.org/2000/svg">
  <g transform="matrix(1.0, 0.0, 0.0, 1.0, 24.1, 18.1)">
    <use height="13.45" transform="matrix(1.0, 0.0, 0.0, 1.0, -14.35, -2.95)" width="28.1" xlink:href="#shape0"/>
  </g>
  <defs>
    <g id="shape0" transform="matrix(1.0, 0.0, 0.0, 1.0, 14.35, 2.95)">
      <path d="M11.2 5.4 L11.2 3.9 Q10.9 0.45 7.75 -0.4 L-0.45 -1.45 Q-3.3 -1.5 -8.55 -0.3 -11.8 0.5 -12.1 3.95 L-12.1 4.1 -11.95 5.05 -11.85 5.8 -12.7 6.05 -12.85 7.85 -11.25 7.2 -10.9 7.8 -10.85 8.0 Q-9.35 9.15 -7.35 9.0 L-1.45 7.95 Q-0.55 7.3 0.55 7.95 L4.15 8.55 9.45 8.35 10.9 7.55 11.3 7.1 11.8 7.4 12.25 7.6 12.3 7.05 12.25 5.85 11.2 5.4 M12.7 4.4 Q13.7 4.85 13.75 5.7 L13.75 5.95 Q13.85 8.4 13.5 8.95 13.0 9.7 11.55 8.95 10.8 9.55 9.9 9.75 L3.8 10.05 Q0.6 9.7 -0.15 9.25 L-0.55 9.15 Q-1.7 10.0 -7.2 10.45 -10.05 10.75 -11.8 9.15 L-11.85 9.05 -14.15 9.1 -14.35 8.05 -14.35 7.9 -14.15 5.75 Q-14.15 5.2 -13.5 4.85 L-13.6 4.1 -13.6 3.8 Q-13.2 -0.7 -8.9 -1.75 -3.5 -3.0 -0.45 -2.95 3.3 -2.95 8.1 -1.85 12.3 -0.7 12.7 3.8 L12.7 4.4" fill="#000000" fill-rule="evenodd" stroke="none"/>
      <path d="M6.55 7.8 L4.2 7.8 Q7.85 9.0 10.4 7.0 L6.55 7.8 M10.95 6.55 L11.05 6.75 Q8.15 9.45 3.6 7.85 L1.45 7.3 1.5 7.05 2.85 7.4 6.5 7.55 Q8.95 7.25 10.95 6.55" fill="#000000" fill-rule="evenodd" stroke="none"/>
      <path d="M1.65 -0.45 L-2.55 -0.45 Q-5.05 -0.65 -8.2 0.15 -12.05 1.1 -11.9 4.0 -11.8 5.95 -10.65 6.8 L-4.0 7.05 -2.45 6.75 Q-1.3 5.95 -0.45 6.05 0.8 6.2 1.5 6.75 L3.1 7.05 9.8 6.8 Q10.95 6.0 11.0 4.0 11.15 1.1 7.3 0.15 L1.65 -0.45 M-8.25 -0.1 L-2.5 -0.7 1.65 -0.7 7.35 -0.1 Q11.4 0.95 11.25 4.0 11.2 6.0 9.95 7.0 L3.05 7.25 1.4 6.95 Q0.55 6.3 -0.45 6.3 -1.2 6.15 -2.35 7.0 L-3.95 7.3 Q-9.15 8.25 -10.8 7.0 -12.0 6.05 -12.15 4.0 -12.3 0.95 -8.25 -0.1" fill="#000000" fill-rule="evenodd" stroke="none"/>
      <path d="M-12.5 5.8 L-11.55 7.25 -13.6 7.9 -13.5 6.55 Q-12.85 6.45 -12.5 5.8" fill="#002f90" fill-rule="evenodd" stroke="none"/>
      <path d="M-12.5 5.8 Q-12.85 6.45 -13.5 6.55 L-13.45 5.8 -12.65 5.25 -12.5 5.8" fill="#003fc1" fill-rule="evenodd" stroke="none"/>
      <path d="M-13.6 7.9 L-11.55 7.25 -11.0 7.85 Q-13.3 9.05 -13.5 8.7 L-13.6 7.9" fill="#001c58" fill-rule="evenodd" stroke="none"/>
      <path d="M13.0 6.0 Q13.15 8.1 12.9 8.5 12.65 8.85 10.45 7.5 L11.5 6.3 13.0 6.0" fill="#001c58" fill-rule="evenodd" stroke="none"/>
      <path d="M13.0 5.6 L13.0 6.0 11.5 6.3 11.9 4.9 13.0 5.6" fill="#002f90" fill-rule="evenodd" stroke="none"/>
      <path d="M0.7 6.7 L4.85 7.4 9.35 7.6 Q10.6 7.4 11.75 5.7 12.95 8.1 9.65 9.05 L3.9 9.3 0.25 8.6 -1.0 8.55 Q-1.75 9.15 -7.25 9.75 -9.85 10.0 -11.3 8.55 L-12.5 5.7 -11.25 7.0 Q-10.85 8.9 -2.3 7.2 -1.5 7.0 -0.6 5.75 0.0 5.6 0.7 6.7" fill="#00387a" fill-rule="evenodd" stroke="none"/>
      <path d="M1.6 6.35 L6.55 7.15 Q9.75 7.2 10.05 4.25 L11.95 3.85 Q12.2 6.55 10.3 7.8 7.45 9.7 0.55 7.3 0.15 7.25 -0.1 6.65 -0.3 6.15 -0.45 6.15 -0.65 7.2 -1.45 7.3 -10.95 10.8 -12.65 5.4 L-10.6 5.4 Q-9.8 7.3 -7.0 7.15 L-2.75 6.4 -0.45 4.3 1.6 6.35" fill="#005ad2" fill-rule="evenodd" stroke="none"/>
      <path d="M-8.75 -1.05 Q-3.35 -2.25 -0.45 -2.2 L7.9 -1.1 Q11.7 -0.15 11.95 3.85 L10.05 4.25 10.1 4.0 Q10.25 1.4 6.65 0.5 L2.4 -0.1 -0.4 0.0 -3.2 -0.1 Q-4.85 -0.15 -7.45 0.5 -11.05 1.4 -10.9 4.0 L-10.6 5.4 -12.65 5.4 Q-12.95 4.6 -12.85 3.85 -12.5 -0.1 -8.75 -1.05" fill="#0078f9" fill-rule="evenodd" stroke="none"/>
      <path d="M-0.45 -1.6 L4.25 -1.2 Q9.1 -0.65 9.7 0.25 5.05 -1.0 1.75 -1.05 L-0.45 -0.95 -2.65 -1.05 Q-5.95 -1.0 -10.6 0.25 -9.95 -0.65 -5.15 -1.2 L-0.45 -1.6" fill="#12c4fb" fill-rule="evenodd" stroke="none"/>
      <path d="M10.9 4.4 Q10.95 7.0 7.3 7.25 4.75 7.45 1.7 6.6 L7.8 6.95 Q10.85 5.75 9.1 2.45 8.55 1.35 4.0 0.75 L-0.45 0.35 -4.9 0.75 Q-9.45 1.35 -10.0 2.45 -11.65 5.9 -8.75 7.05 L-2.55 6.6 -8.2 7.25 Q-11.9 7.0 -11.8 4.4 -11.55 -0.9 -0.45 -1.15 10.9 -0.9 10.9 4.4" fill="#00387a" fill-rule="evenodd" stroke="none"/>
      <path d="M-2.6 -0.1 L-0.45 -0.2 5.1 0.25 2.35 2.7 Q0.8 4.1 0.3 5.4 L-0.5 5.1 Q-0.8 5.1 -1.65 5.6 -2.55 6.1 -2.5 6.35 L-6.55 7.2 Q-5.8 4.85 -2.6 -0.1" fill="#00a0fa" fill-rule="evenodd" stroke="none"/>
      <path d="M-6.55 7.2 Q-11.45 8.1 -11.1 4.05 -10.95 1.4 -7.85 0.65 L-2.6 -0.1 Q-5.8 4.85 -6.55 7.2" fill="#0064ef" fill-rule="evenodd" stroke="none"/>
      <path d="M7.0 0.65 Q10.0 1.4 10.25 4.05 10.55 7.65 6.75 7.35 L1.6 6.35 Q1.65 6.05 0.3 5.4 0.8 4.1 2.35 2.7 L5.1 0.25 7.0 0.65" fill="#0064ef" fill-rule="evenodd" stroke="none"/>
      <path d="M-10.95 5.8 L-11.1 4.05 Q-10.95 1.4 -7.85 0.65 L-0.85 -0.1 Q-10.2 1.75 -10.95 5.8" fill="#0080f8" fill-rule="evenodd" stroke="none"/>
      <path d="M0.85 -0.1 L1.95 0.0 Q-2.65 2.85 -4.7 6.85 L-5.4 7.0 Q-3.9 3.1 0.85 -0.1" fill="#ffffff" fill-rule="evenodd" stroke="none"/>
      <path d="M10.0 4.0 Q10.25 7.5 5.65 6.55 7.85 5.85 8.45 5.0 9.2 3.85 8.05 1.45 9.85 2.15 10.0 4.0" fill="#002f90" fill-rule="evenodd" stroke="none"/>
      <path d="M-1.45 0.45 Q-6.35 0.85 -8.35 2.25 -10.2 3.45 -9.9 2.9 -8.75 1.2 -4.5 0.6 L-1.45 0.45" fill="#ffffff" fill-rule="evenodd" stroke="none"/>
      <path d="M1.4 6.0 L1.55 5.2 7.7 5.9 7.6 6.75 1.4 6.0" fill="#002f90" fill-rule="evenodd" stroke="none"/>
      <path d="M-7.6 -0.8 L-7.9 -0.2 -8.75 0.3 Q-10.0 0.75 -10.9 1.75 L-11.55 2.75 -12.3 2.45 -11.25 0.9 Q-9.8 -0.6 -7.6 -0.8" fill="#bffdfe" fill-rule="evenodd" stroke="none"/>
      <path d="M2.1 6.45 Q2.3 5.4 6.45 1.0 L7.05 1.55 Q3.1 5.8 2.95 6.6 L2.1 6.45" fill="#ffffff" fill-rule="evenodd" stroke="none"/>
      <path d="M-12.05 6.2 L-11.25 6.0 Q-11.25 8.35 -4.35 7.0 L-3.65 6.8 -3.05 7.55 Q-8.7 8.9 -11.0 7.45 L-12.05 6.2" fill="#bffdfe" fill-rule="evenodd" stroke="none"/>
      <path d="M0.45 5.05 L0.15 5.8 -0.45 5.55 -1.95 6.55 Q-2.2 6.3 -1.85 5.75 L-0.55 4.65 0.45 5.05" fill="#bffdfe" fill-rule="evenodd" stroke="none"/>
      <path d="M10.15 5.55 L10.6 4.9 11.25 4.85 Q10.75 8.15 6.3 7.85 L6.35 7.05 Q9.2 7.2 10.15 5.55" fill="#bffdfe" fill-rule="evenodd" stroke="none"/>
      <path d="M0.05 7.25 L0.05 8.5 -0.95 8.5 -0.95 7.25 0.05 7.25" fill="#000000" fill-rule="evenodd" stroke="none"/>
    </g>
  </defs>
</svg>
